dist/img/sprites/Info.svg

<svg width="25" height="25" viewBox="0 0 25 25" fill="none" xmlns="http://www.w3.org/2000/svg">
<rect width="25" height="25" rx="5" fill="#FAD61A"/>
<path fill-rule="evenodd" clip-rule="evenodd" d="M14.3925 19.1291C13.2675 20.6726 12.3535 21.0525 11.5332 21.0525C10.1973 21.0525 9.6817 20.2214 9.6817 19.3428C9.6817 18.9629 9.79889 18.4404 9.8692 18.1317L11.791 10.3192H9.53848C9.48877 10.3194 9.43968 10.308 9.39498 10.2859C9.35028 10.2639 9.31116 10.2318 9.28061 10.192C9.25007 10.1523 9.22891 10.106 9.21877 10.0567C9.20862 10.0074 9.20975 9.95638 9.22208 9.90759L9.33406 9.46696C9.35554 9.38134 9.40082 9.30376 9.46452 9.24343C9.52822 9.1831 9.60766 9.14255 9.69342 9.1266L14.0552 8.31791C14.1624 8.29771 14.2728 8.30516 14.3764 8.33955C14.48 8.37395 14.5734 8.43419 14.6479 8.51474C14.7225 8.59528 14.7759 8.69354 14.8031 8.80046C14.8304 8.90739 14.8307 9.01954 14.8039 9.1266L12.3847 18.9497C12.3691 19.0134 12.3763 19.0806 12.4049 19.1395C12.4334 19.1984 12.4817 19.2452 12.541 19.2716C12.6021 19.2991 12.6703 19.3062 12.7356 19.2917C12.801 19.2772 12.8601 19.242 12.9042 19.1911L14.8247 16.9761C14.9053 16.8829 15.0171 16.8232 15.1385 16.8086C15.2599 16.794 15.3824 16.8255 15.4823 16.8969C15.5295 16.931 15.5695 16.9742 15.6 17.0242C15.6305 17.0741 15.6508 17.1297 15.6598 17.1877C15.6688 17.2457 15.6662 17.305 15.6523 17.362C15.6383 17.419 15.6133 17.4726 15.5786 17.5196L14.3925 19.1291ZM15.7206 5.77573C15.5331 6.60685 14.83 7.15302 13.9159 7.15302C12.955 7.15302 12.4394 6.53561 12.4394 5.87072C12.4426 5.68657 12.4662 5.50337 12.5097 5.32455C12.6972 4.49343 13.4003 3.94727 14.3144 3.94727C15.2753 3.94727 15.7909 4.56467 15.7909 5.22957C15.7909 5.37204 15.7674 5.58576 15.7206 5.77573Z" fill="white"/>
</svg>

<svg width="25" height="25" viewBox="0 0 25 25" fill="none" xmlns="http://www.w3.org/2000/svg"><rect width="25" height="25" rx="5" fill="#FAD61A"/><path fill-rule="evenodd" clip-rule="evenodd" d="M14.393 19.13c-1.126 1.543-2.04 1.922-2.86 1.922-1.336 0-1.851-.83-1.851-1.71 0-.38.117-.902.187-1.21l1.922-7.813H9.538a.32.32 0 01-.257-.127.331.331 0 01-.059-.284l.112-.441a.463.463 0 01.36-.34l4.361-.81a.642.642 0 01.593.198.66.66 0 01.156.612l-2.42 9.823a.281.281 0 00.157.322.31.31 0 00.363-.08l1.92-2.216a.493.493 0 01.658-.08.439.439 0 01.17.466.443.443 0 01-.073.158l-1.187 1.61zM15.72 5.775c-.188.83-.891 1.377-1.805 1.377-.961 0-1.477-.617-1.477-1.282.004-.184.027-.368.07-.546.188-.832.891-1.378 1.805-1.378.961 0 1.477.618 1.477 1.283a2.5 2.5 0 01-.07.546z" fill="#fff"/></svg>
